!!!!SEGMENT: pl-kk--kk-i-2--046-001_anonim--officium-a-4-voci-paschale-kyrie.krn
!!!cenid: 16xx:1718
!!!COM: Anonim
!!!COM-rismid: pe30004985
!!!CDT:
!!!CNT:
!!!OPR: Officium A 4 Voci Paschale
!!!OTL: Kyrie
!!!OMV: 001
!!!PDT:
!!!AGN: Sacred; Mass
!!!SMS-siglum: PL-Kk
!!!SMS-shelfmark: Kk.I.2
!!!SMS-shelfwork: 046-001 M
!!!NIFC-rismid: 300258064
!!!URL-scan: http://repozytorium.nifc.pl/skany/pl-kk-nut--i-2
!!!ONB-nifc: Części mszy: Kyrie Gloria Credo Sanctus Agnus Dei; skany: C: 0074-0075; A: 0177-0178; T: 0277-0278; B: 0378-0379;
!!!AIN: 1 alto 1 bass 1 soprn 1 tenor
!!!key:
**kern	**text	**kern	**text	**kern	**text	**kern	**text
*part4	*part4	*part3	*part3	*part2	*part2	*part1	*part1
*staff4	*staff4	*staff3	*staff3	*staff2	*staff2	*staff1	*staff1
*ICvox	*	*ICvox	*	*ICvox	*	*ICvox	*
*Ibass	*	*Itenor	*	*Ialto	*	*Isoprn	*
*I"BASSVS	*	*I"TENOR	*	*I"ALTUS	*	*I"CANTVS	*
*I'B	*	*I'T	*	*I'A	*	*I'S	*
*clefF4	*	*clefC4	*	*clefC4	*	*clefC3	*
*k[]	*	*k[]	*	*k[]	*	*k[]	*
*d:	*	*d:	*	*d:	*	*d:	*
*M2/1	*	*M2/1	*	*M2/1	*	*M2/1	*
*met(C|)	*	*met(C|)	*	*met(C|)	*	*met(C|)	*
=1-	=1-	=1-	=1-	=1-	=1-	=1-	=1-
1D	Ky-	1D	Ky-	1.A	Ky-	2f\	Ky-
.	.	.	.	.	.	2f\	-ri-
!LO:TX:t=P:problem=kreska pseudotaktowa	!	!	!	!	!	!	!
1AA	-ri-	1C	-ri-	.	.	2a\	-e
!	!	!	!	!LO:TX:t=P:problem=kreska pseudotaktowa	!	!LO:TX:t=P:problem=kreska pseudotaktowa	!
.	.	.	.	2A/	-ri-	2e\	.
=2-	=2-	=2-	=2-	=2-	=2-	=2-	=2-
!	!	!LO:TX:t=P:problem=kreska pseudotaktowa	!	!	!	!	!
2D\	-e	1D	-e	2A/	-e	2.f\	e-
2.F\	e-	.	.	2.A/	e-	.	.
.	.	.	.	.	.	4g\	.
*	*	*lig	*	*	*	*	*
.	.	1F	[e]-	.	.	1a	.
4E\	.	.	.	4G/	.	.	.
4D\	.	.	.	4F/	.	.	.
!LO:TX:t=P:problem=kreska pseudotaktowa	!	!	!	!LO:TX:t=P:problem=kreska pseudotaktowa	!	!	!
4C/	.	.	.	4E/	.	.	.
=3-	=3-	=3-	=3-	=3-	=3-	=3-	=3-
2BB-X/	.	1G	.	2D/	.	2d\	.
2C/	.	.	.	2E/	.	4c/	-lei-
!	!	!	!	!	!	!LO:TX:t=P:problem=kreska pseudotaktowa	!
!	!	!	!	!	!	!LO:SIC:v:s=4B-/:t=?	!
.	.	.	.	.	.	4B/	.
*	*	*Xlig	*	*	*	*	*
!LO:TX:t=P:problem=kreska pseudotaktowa	!	!	!	!	!	!	!
1D	-lei-	1F	.	2A/	.	1A	-ſon
!	!	!	!	!LO:TX:t=P:problem=kreska pseudotaktowa	!	!	!
.	.	.	.	2d\	.	.	.
=4-	=4-	=4-	=4-	=4-	=4-	=4-	=4-
*	*	*lig	*	*	*	*	*
!	!	!	!	!	!	!LO:TX:t=P:problem=kreska pseudotaktowa	!
2AA/	-ſon	1E	-ley-	2d\	.	1A	ky-
*	*	*	*	*custos:d	*	*	*
!	!	!	!	!LO:TX:t=P:problem=# above	!	!	!
2AA/	ky-	.	.	2c#X\	-lei-	.	.
!	!	!	!	!LO:LB:g=original	!	!	!
!	!	!	!	!LO:TX:t=P:problem=kreska pseudotaktowa	!	!	!
2D/	-ri-	1F	.	0d	-ſon	2A/	-ri-
2.F\	-e	.	.	.	.	2.d\	-e
*	*	*Xlig	*	*	*	*	*
=5-	=5-	=5-	=5-	=5-	=5-	=5-	=5-
!	!	!LO:TX:t=P:problem=kreska pseudotaktowa	!	!LO:TX:t=P:problem=kreska pseudotaktowa	!	!	!
.	.	1D	-ſon	.	.	.	.
4E\	.	.	.	.	.	4e\	.
4D\	.	.	.	.	.	4f\	.
!LO:TX:t=P:problem=kreska pseudotaktowa	!	!	!	!	!	!LO:TX:t=P:problem=kreska pseudotaktowa	!
4C\	.	.	.	.	.	4g\	.
*	*	*custos:G	*	*	*	*	*
1D	.	1A	ky-	2D/	ky-	1f	.
.	.	.	.	2D/	-ri-	.	.
=6-	=6-	=6-	=6-	=6-	=6-	=6-	=6-
!	!	!LO:LB:g=original	!	!	!	!	!
2BB-X/	e-	1G	-ri-	4G/	-e	2d\	e-
.	.	.	.	2cny\	[e]-	.	.
*custos:FF	*	*	*	*	*	*	*
!LO:TX:t=P:problem=kreska pseudotaktowa	!	!	!	!	!	!LO:TX:t=P:problem=kreska pseudotaktowa	!
2C/	-ley-	.	.	.	.	2c\	-lei-
!	!	!	!	!LO:TX:t=P:problem=kreska pseudotaktowa	!	!	!
!	!	!	!	!LO:SIC:v:s=4Bn\	!	!	!
.	.	.	.	4B\	.	.	.
*	*	*	*	*	*	*custos:c	*
!LO:TX:t=P:problem=kreska pseudotaktowa	!	!LO:TX:t=P:problem=kreska pseudotaktowa	!	!	!	!LO:TX:t=P:problem=kreska pseudotaktowa	!
!LO:LB:g=original	!	!	!	!	!	!	!
1FF	-ſon	1F	-e	4A\	.	1c	-ſon
.	.	.	.	4G\	.	.	.
!	!	!	!	!LO:TX:t=P:problem=kreska pseudotaktowa	!	!	!
.	.	.	.	2A/	.	.	.
=7-	=7-	=7-	=7-	=7-	=7-	=7-	=7-
*	*	*lig	*	*	*	*	*
!	!	!	!	!	!	!LO:LB:g=original	!
1C	ky-	1G	e-	1E	.	2.c\	ky-
!	!	!	!	!	!	!LO:TX:t=P:problem=kreska pseudotaktowa	!
.	.	.	.	.	.	4e\	-ri-
!	!	!	!	!LO:TX:t=P:problem=kreska pseudotaktowa	!	!	!
1D	-ri-	1F	.	1F	-lei-	4d\	-e
.	.	.	.	.	.	4e\	.
.	.	.	.	.	.	4f\	.
.	.	.	.	.	.	4d\	.
*	*	*Xlig	*	*	*	*	*
=8-	=8-	=8-	=8-	=8-	=8-	=8-	=8-
!LO:TX:t=P:problem=kreska pseudotaktowa	!	!	!	!	!	!	!
*	*	*lig	*	*	*	*	*
1AA	.	1E	.	2.A\	.	2e\	e-
!	!	!	!	!	!	!LO:TX:t=P:problem=kreska pseudotaktowa	!
.	.	.	.	.	.	2.a\	.
.	.	.	.	4G\	.	.	.
2D\	-e	1F	.	4F/	.	.	.
.	.	.	.	4E/	.	4g\	.
2.F\	e-	.	.	1D/	-ſon	4f\	.
.	.	.	.	.	.	4e\	.
*	*	*Xlig	*	*	*	*	*
=9-	=9-	=9-	=9-	=9-	=9-	=9-	=9-
.	.	1D	-ley-	.	.	2f\	.
4E\	.	.	.	.	.	.	.
!	!	!	!	!	!	!LO:TX:t=P:problem=kreska pseudotaktowa	!
4D\	.	.	.	1F	ky-	2a\	-lei-
!LO:TX:t=P:problem=kreska pseudotaktowa	!	!	!	!	!	!	!
4C/	.	.	.	.	.	.	.
2BB-X/	.	0D	-ſon	.	.	1g	-ſon
!	!	!	!	!LO:TX:t=P:problem=kreska pseudotaktowa	!	!	!
2C/	.	.	.	2E/	-ri-	.	.
=10-	=10-	=10-	=10-	=10-	=10-	=10-	=10-
!	!	!	!	!	!	!LO:TX:t=P:problem=kreska pseudotaktowa	!
2.D/	.	.	.	2F/	-e	1d	ky-
.	.	.	.	4D/	e-	.	.
!LO:TX:t=P:problem=kreska pseudotaktowa	!	!	!	!	!	!	!
4C/	.	.	.	2d\	.	.	.
4BB-X/	.	0D	.	.	.	1.G	-ri-
4AA/	.	.	.	4c\	.	.	.
!	!	!	!	!LO:SIC:v:s=4Bn\	!	!	!
1GG/	.	.	.	4B\	.	.	.
!	!	!	!	!LO:TX:t=P:problem=kreska pseudotaktowa	!	!	!
.	.	.	.	4A\	.	.	.
=11-	=11-	=11-	=11-	=11-	=11-	=11-	=11-
.	.	.	.	2G/	.	.	.
!LO:TX:t=P:problem=kreska pseudotaktowa	!	!	!	!	!	!LO:TX:t=P:problem=kreska pseudotaktowa	!
2FF#X/	.	.	.	2A/	.	2d\	-e
!	!	!LO:TX:a:t=4	!	!	!	!	!
0GG	-ley-	00D	.	2B-X\	.	4d\	.
.	.	.	.	.	.	4c\	.
!	!	!	!	!	!	!LO:SIC:v:s=4.B-/	!
.	.	.	.	4d\	.	4.B/	.
*	*	*	*	*custos:B	*	*	*
!	!	!	!	!LO:TX:t=P:problem=kreska pseudotaktowa	!	!	!
.	.	.	.	4c\	.	.	.
.	.	.	.	.	.	8A/	.
=12-	=12-	=12-	=12-	=12-	=12-	=12-	=12-
.	.	.	.	4B-X\	.	2G/	.
.	.	.	.	4A\	.	.	.
.	.	.	.	2B-X\	-ley-	1g	e-
!	!	!	!	!LO:TX:t=P:problem=kreska pseudotaktowa	!	!	!
0D	.	.	.	0A	-ſon	.	.
!	!	!	!	!	!	!LO:TX:t=P:problem=# above	!
!	!	!	!	!	!	!LO:TX:t=P:problem=kreska pseudotaktowa	!
.	.	.	.	.	.	2f#X\	-ley-
=13-	=13-	=13-	=13-	=13-	=13-	=13-	=13-
!	!	!	!	!LO:TX:t=P:problem=kreska pseudotaktowa	!	!	!
.	.	.	.	.	.	1f#	-ſon
!LO:TX:t=P:problem=kreska pseudotaktowa	!	!LO:TX:t=P:problem=kreska pseudotaktowa	!	!	!	!	!
1D	-ſon	1D	.	2r	.	2.d\	ky-
.	.	.	.	2.A/	ky-	.	.
*	*	*	*	*	*	*custos:d	*
!	!	!	!	!	!	!LO:TX:t=P:problem=kreska pseudotaktowa	!
.	.	.	.	.	.	4c\	-ri-
=14-	=14-	=14-	=14-	=14-	=14-	=14-	=14-
!	!	!	!	!	!	!LO:LB:g=original	!
1r	.	1r	.	.	.	4d\	-e
.	.	.	.	4G/	-ri-	4e\	.
!	!	!	!	!	!	!LO:TX:t=P:problem=kreska pseudotaktowa	!
.	.	.	.	4A/	-e	2fny\	.
!	!	!	!	!LO:TX:t=P:problem=kreska pseudotaktowa	!	!	!
.	.	.	.	4Bny\	.	.	.
2r	.	2.A/	ky-	2c\	.	2e\	e-
!LO:TX:t=P:problem=kreska pseudotaktowa	!	!	!	!	!	!	!
2D/	.	.	.	2d\	e-	2f\	.
!	!	!LO:TX:t=P:problem=kreska pseudotaktowa	!	!	!	!	!
.	.	4G/	-ri-	.	.	.	.
=15-	=15-	=15-	=15-	=15-	=15-	=15-	=15-
!	!	!	!	!	!	!LO:TX:t=P:problem=kreska pseudotaktowa	!
4C/	.	4A/	-e	2A/	-ley-	1e	-lei-
4D/	.	4B\	.	.	.	.	.
!	!	!LO:TX:t=P:problem=kreska pseudotaktowa	!	!	!	!	!
4E\	.	2c\	.	4G/	-ſon	.	.
!LO:TX:t=P:problem=kreska pseudotaktowa	!	!	!	!LO:TX:t=P:problem=kreska pseudotaktowa	!	!	!
4F\	.	.	.	4A/	.	.	.
4F\	.	2d\	e-	4A/	ky-	2A/	-ſon
8E\L	.	.	.	8G/L	.	.	.
*custos:E	*	*	*	*	*	*	*
8D\J	.	.	.	8F/J	.	.	.
!LO:TX:t=P:problem=kreska pseudotaktowa	!	!LO:TX:t=P:problem=kreska pseudotaktowa	!	!LO:TX:t=P:problem=kreska pseudotaktowa	!	!	!
!LO:LB:g=original	!	!	!	!	!	!	!
2E\	.	2G/	-ley-	2G/	-ri-	2e\	e-
=16-	=16-	=16-	=16-	=16-	=16-	=16-	=16-
!	!	!	!	!	!	!LO:TX:t=P:problem=kreska pseudotaktowa	!
2.D/	.	2A,/	-ſon	2F/	-e	0A	-lei-
*	*	*	*ij	*	*	*	*
.	.	2.A/	ky-	1F	.	.	.
4C/	.	.	.	.	.	.	.
4D/	.	.	.	.	.	.	.
*	*	*custos:A	*	*	*	*	*
4E/	.	4G/	-ri-	.	.	.	.
!LO:TX:t=P:problem=kreska pseudotaktowa	!	!LO:LB:g=original	!	!LO:TX:t=P:problem=kreska pseudotaktowa	!	!	!
2F\	.	4A/	-e	2.A\	e-	.	.
!	!	!LO:TX:t=P:problem=kreska pseudotaktowa	!	!	!	!	!
.	.	4B\	.	.	.	.	.
=17-	=17-	=17-	=17-	=17-	=17-	=17-	=17-
!	!	!	!	!	!	!LO:TX:t=P:problem=kreska pseudotaktowa	!
2E\	.	4c\	e-	.	.	0e	-ſon
.	.	4B\	.	4G/	.	.	.
2.AA/	.	4A/	-ley-	4A/	.	.	.
.	.	8G/L	-ſon	4B\	.	.	.
!	!	!LO:TX:t=P:problem=kreska pseudotaktowa	!	!	!	!	!
.	.	8F/J	.	.	.	.	.
.	.	2.E/	ky-	1c	-ley-	.	.
4GG/	.	.	.	.	.	.	.
4AA/	.	.	.	.	.	.	.
!LO:TX:t=P:problem=kreska pseudotaktowa	!	!LO:TX:t=P:problem=kreska pseudotaktowa	!	!	!	!	!
4BBny/	.	4D/	-ri-	.	.	.	.
=18-	=18-	=18-	=18-	=18-	=18-	=18-	=18-
!	!	!	!	!LO:TX:t=P:problem=kreska pseudotaktowa	!	!	!
2C/	.	4E/	-e	1G	-ſon	2r	.
.	.	4F/	.	.	.	.	.
!	!	!LO:TX:t=P:problem=kreska pseudotaktowa	!	!	!	!LO:TX:t=P:problem=kreska pseudotaktowa	!
2GG/	.	2G/	.	.	.	2d\	ky-
2.D/	.	2F/	e-	2r	.	4d\	-ri-
.	.	.	.	.	.	4c\	.
.	.	2.A/	-ley-	1F/	ky-	4d\	.
!LO:TX:t=P:problem=kreska pseudotaktowa	!	!	!	!	!	!LO:TX:t=P:problem=kreska pseudotaktowa	!
4C/	.	.	.	.	.	4e\	.
=19-	=19-	=19-	=19-	=19-	=19-	=19-	=19-
4.D/	.	.	.	.	.	1f	-e
.	.	4G/	.	.	.	.	.
8E\	.	.	.	.	.	.	.
4.F\	.	4A/	.	2.A/	-ri-	.	.
!	!	!LO:TX:t=P:problem=kreska pseudotaktowa	!	!	!	!	!
.	.	4B\	.	.	.	.	.
8G\	.	.	.	.	.	.	.
!LO:TX:t=P:problem=kreska pseudotaktowa	!	!	!	!	!	!	!
1A	.	2c\	.	.	.	2.e\	e-
.	.	.	.	4G/	-e	.	.
.	.	1A/	.	4A/	.	.	.
*	*	*	*	*custos:c	*	*	*
!	!	!	!	!LO:TX:t=P:problem=kreska pseudotaktowa	!	!LO:TX:t=P:problem=kreska pseudotaktowa	!
.	.	.	.	4B\	.	4d\	.
=20-	=20-	=20-	=20-	=20-	=20-	=20-	=20-
!	!	!	!	!LO:LB:g=original	!	!	!
2AA/	.	.	.	4c\	.	4e\	.
.	.	.	.	8B\L	.	4f\	.
.	.	.	.	8A\J	.	.	.
!	!	!LO:TX:t=P:problem=kreska pseudotaktowa	!	!LO:TX:t=P:problem=kreska pseudotaktowa	!	!	!
2GG/	.	2B-X\	.	2d\	e-	1g	.
!	!	!	!	!LO:SIC:v:s=2c#\	!	!	!
0AA	.	0A	.	2c\	.	.	.
.	.	.	.	1d\	.	2f\	-le-
=21-	=21-	=21-	=21-	=21-	=21-	=21-	=21-
.	.	.	.	.	.	1e	-i-
!	!	!	!	!LO:TX:t=P:problem=# above	!	!	!
.	.	.	.	2c#X\	-ley-	.	.
!	!	!	!	!	!	!LO:N:vis=0	!
!LO:N:vis=0	!	!LO:N:vis=00	!	!LO:N:vis=0	!	!LO:TX:t=P:problem=# above	!
1D;<	.	1A	-ſon	1d;<	-ſon	1f#X;<	-ſon
=22||	=22||	=22	=22	=22||	=22||	=22||	=22||
*M2/1	*	*M2/1	*Xij	*M2/1	*	*M2/1	*
*met(C|)	*	*met(C|)	*	*met(C|)	*	*met(C|)	*
!	!	!LO:LB:g=original	!	!	!	!LO:PB:g=original	!
!LO:LB:g=original	!	!	!	!LO:LB:g=original	!	!LO:TX:t=P:problem=kreska pseudotaktowa	!
00r	.	1A	Chri-	2r	.	0r	.
.	.	.	.	2.e\	Chri-	.	.
!	!	!LO:TX:t=P:problem=kreska pseudotaktowa	!	!	!	!	!
.	.	1G#X	-ſte	.	.	.	.
.	.	.	.	4e\	.	.	.
!	!	!	!	!LO:TX:t=P:problem=kreska pseudotaktowa	!	!	!
.	.	.	.	2B\	-ſte	.	.
=23-	=23-	=23-	=23-	=23-	=23-	=23-	=23-
*	*	*lig	*	*	*	*	*
.	.	1A	e-	2.c\	e-	2r	.
.	.	.	.	.	.	2.a\	Chri-
.	.	.	.	4d\	-ley-	.	.
!	!	!	!	!LO:TX:t=P:problem=kreska pseudotaktowa	!	!	!
.	.	1c	.	1e	-ſon	.	.
.	.	.	.	.	.	4a\	-ſte
!	!	!	!	!	!	!LO:TX:t=P:problem=kreska pseudotaktowa	!
.	.	.	.	.	.	2e\	e-
*	*	*Xlig	*	*	*	*	*
=24-	=24-	=24-	=24-	=24-	=24-	=24-	=24-
!LO:TX:t=P:problem=kreska pseudotaktowa	!	!	!	!	!	!	!
0r	.	0d	-ley-	2r	.	2.f\	.
.	.	.	.	2.d\	Chri-	.	.
.	.	.	.	.	.	4g\	.
.	.	.	.	.	.	2a\	.
.	.	.	.	4d\	.	.	.
!	!	!	!	!LO:TX:t=P:problem=kreska pseudotaktowa	!	!	!
.	.	.	.	2A\	-ſte	2f\	-ley-
=25-	=25-	=25-	=25-	=25-	=25-	=25-	=25-
*	*	*	*	*	*ij	*	*
!	!	!LO:TX:t=P:problem=kreska pseudotaktowa	!	!	!	!LO:TX:t=P:problem=kreska pseudotaktowa	!
2r	.	0A	-ſon	2.c\	e-	1e	-ſon
2.A\	Chri-	.	.	.	.	.	.
.	.	.	.	4d\	.	.	.
.	.	.	.	2e\	.	2r	.
4A\	-ſte	.	.	.	.	.	.
!LO:TX:t=P:problem=kreska pseudotaktowa	!	!	!	!LO:TX:t=P:problem=kreska pseudotaktowa	!	!	!
2AA/	e-	.	.	2c\	.	2.a\	Chri-
=26-	=26-	=26-	=26-	=26-	=26-	=26-	=26-
2.F\	.	1A	Chri-	1d	-ley-	.	.
.	.	.	.	.	.	4a\	-ſte
!	!	!	!	!	!	!LO:TX:t=P:problem=kreska pseudotaktowa	!
.	.	.	.	.	.	2A/	e-
4G\	.	.	.	.	.	.	.
2A\	.	1c	-ſte	2c\	-ſon	2.e\	.
*	*	*	*	*	*Xij	*	*
4G\	.	.	.	2.A\	Chri-	.	.
!LO:TX:t=P:problem=kreska pseudotaktowa	!	!	!	!	!	!	!
4F\	.	.	.	.	.	4f\	.
=27-	=27-	=27-	=27-	=27-	=27-	=27-	=27-
*	*	*lig	*	*	*	*	*
4E\	.	1Gny	e-	.	.	2.g\	.
8D\L	.	.	.	4A\	.	.	.
8C\J	.	.	.	.	.	.	.
!	!	!	!	!LO:TX:t=P:problem=kreska pseudotaktowa	!	!	!
4G\	.	.	.	2E/	-ſte	.	.
4GG/	-lei-	.	.	.	.	2d\	.
!LO:TX:t=P:problem=kreska pseudotaktowa	!	!	!	!	!	!	!
1D	-ſon	1F	.	2.F/	e-	.	.
.	.	.	.	.	.	4e\	.
.	.	.	.	.	.	4f\	.
*	*	*	*	*custos:A	*	*	*
!	!	!	!	!LO:TX:t=P:problem=kreska pseudotaktowa	!	!LO:TX:t=P:problem=kreska pseudotaktowa	!
.	.	.	.	4G/	.	4d\	.
*	*	*Xlig	*	*	*	*	*
=28-	=28-	=28-	=28-	=28-	=28-	=28-	=28-
!	!	!	!	!LO:PB:g=original	!	!	!
2r	.	1E	.	2A/	.	1e	.
2.A\	Chri-	.	.	2.A/	.	.	.
*	*	*	*	*	*	*custos:A	*
!	!	!	!	!	!	!LO:TX:t=P:problem=kreska pseudotaktowa	!
.	.	1F	-ley-	.	.	1d	-ley-
4A\	-ſte	.	.	4G/	-ley-	.	.
!LO:TX:t=P:problem=kreska pseudotaktowa	!	!	!	!LO:TX:t=P:problem=kreska pseudotaktowa	!	!	!
2D\	e-	.	.	2.F/	-ſon	.	.
=29-	=29-	=29-	=29-	=29-	=29-	=29-	=29-
!	!	!LO:TX:t=P:problem=kreska pseudotaktowa	!	!	!	!LO:TX:t=P:problem=kreska pseudotaktowa	!
2.F\	.	0D	-ſon	.	.	1A	-ſon
.	.	.	.	4G/	.	.	.
.	.	.	.	4A/	.	.	.
4G\	.	.	.	8B\L	.	.	.
!	!	!	!	!LO:TX:t=P:problem=kreska pseudotaktowa	!	!	!
.	.	.	.	8c\J	.	.	.
2A\	.	.	.	4d\	Chri-	2r	.
.	.	.	.	4d\	-ſte	.	.
*custos:GG	*	*	*	*	*	*	*
!LO:TX:t=P:problem=kreska pseudotaktowa	!	!	!	!LO:TX:t=P:problem=kreska pseudotaktowa	!	!	!
2D/	-lei-	.	.	2A/	e-	2.d\	Chri-
=30-	=30-	=30-	=30-	=30-	=30-	=30-	=30-
*	*	*	*ij	*	*	*	*
!LO:LB:g=original	!	!	!	!	!	!	!
2GG/	-ſon	1G	Chri-	2.B\	.	.	.
.	.	.	.	.	.	4d\	-ſte
!	!	!	!	!	!	!LO:TX:t=P:problem=kreska pseudotaktowa	!
2.G\	Chri-	.	.	.	.	2G/	e-
.	.	.	.	4c\	-ley-	.	.
!	!	!	!	!LO:TX:t=P:problem=kreska pseudotaktowa	!	!	!
.	.	1G	-ſte	1d	-ſon	2.B/	-ley-
4G\	-ſte	.	.	.	.	.	.
!LO:TX:t=P:problem=kreska pseudotaktowa	!	!	!	!	!	!	!
2GG/	e-	.	.	.	.	.	.
.	.	.	.	.	.	4c/	.
=31-	=31-	=31-	=31-	=31-	=31-	=31-	=31-
*	*	*lig	*	*	*	*	*
2.D/	.	1D	e-	2.d\	Chri-	2d\	-ſon
.	.	.	.	.	.	2.f\	Chri-
!	!	!	!	!LO:TX:t=P:problem=kreska pseudotaktowa	!	!	!
4D/	-ley-	.	.	4B-X\	-ſte	.	.
!	!	!LO:TX:t=P:problem=kreska pseudotaktowa	!	!	!	!	!
2AA/	-ſon	1C	.	2.c\	e-	.	.
.	.	.	.	.	.	4f\	-ſte
!LO:TX:t=P:problem=kreska pseudotaktowa	!	!	!	!	!	!LO:TX:t=P:problem=kreska pseudotaktowa	!
2FF/	.	.	.	.	.	2c\	e-
.	.	.	.	4A/	-ley-	.	.
*	*	*Xlig	*	*	*	*	*
=32-	=32-	=32-	=32-	=32-	=32-	=32-	=32-
2F\	Chri-	1F	.	2d\	-ſon	2.d\	-ley-
!	!	!	!	!LO:TX:t=P:problem=kreska pseudotaktowa	!	!	!
2D\	-ſte	.	.	2.d\	Chri-	.	.
.	.	.	.	.	.	4c\	.
*	*	*custos:A	*	*	*	*	*
2GG/	e-	1G	.	.	.	2B/	.
.	.	.	.	4d\	-ſte	.	.
!LO:TX:t=P:problem=kreska pseudotaktowa	!	!	!	!LO:TX:t=P:problem=kreska pseudotaktowa	!	!LO:TX:t=P:problem=kreska pseudotaktowa	!
2BB/	-ley-	.	.	2G/	e-	2B/	.
=33-	=33-	=33-	=33-	=33-	=33-	=33-	=33-
!	!	!LO:LB:g=original	!	!	!	!	!
1.AA	-ſon	0A	-ley-	1.c	.	2.c/	.
.	.	.	.	.	.	4B/	-ley-
.	.	.	.	.	.	1A	-ſon
*	*	*	*	*custos:c	*	*	*
2.D/	Chri-	.	.	1F/	.	.	.
=34-	=34-	=34-	=34-	=34-	=34-	=34-	=34-
!	!	!LO:TX:t=P:problem=kreska pseudotaktowa	!	!	!	!	!
.	.	1A	-ſon	.	.	2f\	Chri-
4D/	-ſte	.	.	.	.	.	.
!	!	!	!	!LO:LB:g=original	!	!	!
!LO:TX:t=P:problem=kreska pseudotaktowa	!	!	!	!LO:TX:t=P:problem=kreska pseudotaktowa	!	!LO:TX:t=P:problem=kreska pseudotaktowa	!
2AA/	e-	.	.	2c\	-ley-	2c/	.
2.D/	-le-	1F	Chri-	2d\	-ſon	1f	-ſte
.	.	.	.	2.d\	Chri-	.	.
4C/	-i-	.	.	.	.	.	.
=35-	=35-	=35-	=35-	=35-	=35-	=35-	=35-
*	*	*lig	*	*	*	*	*
1BB	-ſon	1G	.	.	.	2d\	.
.	.	.	.	4d\	-ſte	.	.
!	!	!	!	!LO:TX:t=P:problem=kreska pseudotaktowa	!	!LO:TX:t=P:problem=kreska pseudotaktowa	!
.	.	.	.	2Bny\	e-	2d\	e-
*	*	*	*	*	*	*lig	*
2D/	Chri-	1F	.	4A/	.	1A	.
.	.	.	.	4B\	.	.	.
!LO:TX:t=P:problem=kreska pseudotaktowa	!	!	!	!	!	!	!
2AA/	-ſte	.	.	4c\	.	.	.
!	!	!	!	!LO:TX:t=P:problem=kreska pseudotaktowa	!	!	!
.	.	.	.	4d\	.	.	.
*	*	*Xlig	*	*	*	*	*
=36-	=36-	=36-	=36-	=36-	=36-	=36-	=36-
*	*	*lig	*	*	*	*	*
1C	e-	1E	-ſte	1e	.	1e	.
*	*	*	*	*	*	*Xlig	*
2FF/	-ley-	1F	.	2.A/	.	2c\	-ley-
!LO:TX:t=P:problem=kreska pseudotaktowa	!	!	!	!	!	!LO:TX:t=P:problem=kreska pseudotaktowa	!
2F\	-ſon	.	.	.	.	2d\	-ſon
!	!	!	!	!LO:TX:t=P:problem=kreska pseudotaktowa	!	!	!
.	.	.	.	4G/	-lei-	.	.
*	*	*Xlig	*	*	*	*	*
=37-	=37-	=37-	=37-	=37-	=37-	=37-	=37-
*	*	*lig	*	*	*	*	*
2F\	Chri-	1D	e-	2F/	-ſon	2r	.
4E\	-ſte	.	.	2.A/	Chri-	2.a\	Chri-
*custos:A	*	*	*	*	*	*	*
!LO:TX:t=P:problem=kreska pseudotaktowa	!	!	!	!	!	!	!
4D\	.	.	.	.	.	.	.
!LO:PB:g=original	!	!LO:TX:t=P:problem=kreska pseudotaktowa	!	!	!	!	!
2A\	.	1E	.	.	.	.	.
.	.	.	.	4B\	-ſte	4a\	-ſte
!	!	!	!	!	!	!LO:TX:t=P:problem=kreska pseudotaktowa	!
1AA/	.	.	.	1c\	e-	2e\	e-
*	*	*Xlig	*	*	*	*	*
=38-	=38-	=38-	=38-	=38-	=38-	=38-	=38-
.	.	2C/	-ley-	.	.	2.f\	.
!	!	!	!	!LO:TX:t=P:problem=kreska pseudotaktowa	!	!	!
2AA/	e-	2AA/	.	2d\	.	.	.
.	.	.	.	.	.	4g\	.
1AA	-ley-	2BB/	.	2e\	.	1a	-ley-
!	!	!LO:TX:t=P:problem=kreska pseudotaktowa	!	!	!	!	!
!	!	!LO:SIC:v:s=2C#/:t=?	!	!	!	!	!
.	.	2C/	.	2A/	-lei-	.	.
=39-	=39-	=39-	=39-	=39-	=39-	=39-	=39-
!LO:TX:t=P:problem=kreska pseudotaktowa	!	!	!	!LO:TX:t=P:problem=kreska pseudotaktowa	!	!LO:TX:t=P:problem=kreska pseudotaktowa	!
1D	-ſon	1D	.	1A	-ſon	1f	-ſon
=40-	=40-	=40-	=40-	=40-	=40-	=40-	=40-
*M3/1	*	*M3/1	*	*M3/1	*	*M3/1	*
*met(O3/1)	*	*met(O3/1)	*	*met(O3/1)	*	*met(O3/1)	*
!	!	!LO:TX:t=P:problem=kreska pseudotaktowa	!	!	!	!	!
1.AA	Chri-	0.E	-ſon	1.c#X	Chri-	1a	Chri-
*	*	*	*	*	*	*lig	*
.	.	.	.	.	.	1a	-ſte
2BB/	.	.	.	2d\	.	.	.
!LO:SIC:v:s=2C#/	!	!	!	!	!	!LO:TX:t=P:problem=kreska pseudotaktowa	!
2C/	-ſte	.	.	2e\	.	1e	.
!LO:TX:t=P:problem=kreska pseudotaktowa	!	!	!	!	!	!	!
2AA/	.	.	.	2c#\	.	.	.
*	*	*	*Xij	*	*	*Xlig	*
=41-	=41-	=41-	=41-	=41-	=41-	=41-	=41-
!	!	!	!	!LO:LB:g=original	!	!	!
1D	e-	1.D	Chri-	1d	.	2f\	e-
.	.	.	.	.	.	2e\	.
1D	-ley-	.	.	1d	-ſte	2d\	.
.	.	2E/	.	.	.	2c\	.
!LO:TX:t=P:problem=kreska pseudotaktowa	!	!	!	!LO:TX:t=P:problem=kreska pseudotaktowa	!	!LO:TX:t=P:problem=kreska pseudotaktowa	!
1D	-ſon	2F/	-ſte	1A	e-	1d	.
!	!	!LO:TX:t=P:problem=kreska pseudotaktowa	!	!	!	!	!
.	.	2D/	.	.	.	.	.
=42-	=42-	=42-	=42-	=42-	=42-	=42-	=42-
*	*ij	*	*	*col	*	*col	*
!	!	!	!	!	!	!LO:SIC:v:s=1C#	!
1.AA	Chri-	1A	e-	1E	-ley-	1c	-lei-
!	!	!	!	!LO:TX:t=P:problem=kreska pseudotaktowa	!	!LO:SIC:v:s=0C#	!
.	.	1A	-ley-	0E	-ſon	0c	-ſon
*	*	*	*	*Xcol	*	*Xcol	*
2BB/	.	.	.	.	.	.	.
*	*	*custos:D	*	*	*	*	*
!	!	!LO:TX:t=P:problem=kreska pseudotaktowa	!	!	!	!	!
!LO:SIC:v:s=2C#/	!	!	!	!	!	!	!
2C/	-ſte	1A	-ſon	.	.	.	.
!LO:TX:t=P:problem=kreska pseudotaktowa	!	!	!	!	!	!	!
2AA/	.	.	.	.	.	.	.
=43-	=43-	=43-	=43-	=43-	=43-	=43-	=43-
!	!	!LO:LB:g=original	!	!	!	!LO:SIC:v:s=2f#\	!
1D	e-	1.D	Chri-	1.F#X	Chri-	2f\	e-
.	.	.	.	.	.	2e\	.
1D	-ley-	.	.	.	.	2d\	.
!	!	!	!	!	!	!LO:SIC:v:s=2c#\	!
.	.	2E/	.	2G/	.	2c\	.
!LO:TX:t=P:problem=kreska pseudotaktowa	!	!	!	!	!	!LO:TX:t=P:problem=kreska pseudotaktowa	!
1D	-ſon	2F#X/	.	2A/	.	1d	.
!	!	!LO:TX:t=P:problem=kreska pseudotaktowa	!	!LO:TX:t=P:problem=kreska pseudotaktowa	!	!	!
.	.	2D/	.	2F#X/	.	.	.
=44-	=44-	=44-	=44-	=44-	=44-	=44-	=44-
*	*	*	*	*	*	*col	*
1.GG	Chri-	1G	.	1G	-ſte	1d	-ley-
.	.	1G	-ſte	1B	.	0d	-ſon
*	*	*	*	*	*	*Xcol	*
2AA/	.	.	.	.	.	.	.
!	!	!LO:TX:t=P:problem=kreska pseudotaktowa	!	!LO:TX:t=P:problem=kreska pseudotaktowa	!	!	!
2BB/	-ſte	1G	e-	1B	e-	.	.
!LO:TX:t=P:problem=kreska pseudotaktowa	!	!	!	!	!	!	!
2GG/	e-	.	.	.	.	.	.
=45-	=45-	=45-	=45-	=45-	=45-	=45-	=45-
*col	*	*col	*	*col	*	*	*
*	*	*	*	*	*	*custos:B	*
!	!	!	!	!	!	!LO:N:vis=0	!
!	!	!	!	!	!	!LO:TX:t=P:problem=kreska pseudotaktowa	!
1D	-ley-	1F#X	-ley-	1A	-ley-	0.r	.
*custos:GG	*	*	*	*	*	*	*
!LO:TX:t=P:problem=kreska pseudotaktowa	!	!LO:TX:t=P:problem=kreska pseudotaktowa	!	!	!	!	!
0D	-ſon	0F#	-ſon	0A	-ſon	.	.
*Xcol	*Xij	*Xcol	*	*Xcol	*	*	*
=46-	=46-	=46-	=46-	=46-	=46-	=46-	=46-
!LO:LB:g=original	!	!LO:N:vis=0	!	!	!	!	!
1.GG	Chri-	0.r	.	0B	Chri-	1.B	Chri-
2AA/	.	.	.	.	.	2c/	.
!	!	!	!	!LO:TX:t=P:problem=kreska pseudotaktowa	!	!	!
2BB/	.	.	.	1G	-ſte	2d\	.
!LO:TX:t=P:problem=kreska pseudotaktowa	!	!	!	!	!	!LO:TX:t=P:problem=kreska pseudotaktowa	!
2GG/	.	.	.	.	.	2e\	.
=47-	=47-	=47-	=47-	=47-	=47-	=47-	=47-
*	*	*	*ij	*	*	*	*
!	!	!LO:N:vis=0	!	!	!	!	!
1D	.	0.A	Chri-	2A/	e-	1f	.
.	.	.	.	2G/	.	.	.
1D	-ſte	.	.	2Fny/	.	1a	-ſte
.	.	.	.	2E/	.	.	.
*	*	*	*	*custos:D	*	*	*
!LO:TX:t=P:problem=kreska pseudotaktowa	!	!	!	!LO:TX:t=P:problem=kreska pseudotaktowa	!	!LO:TX:t=P:problem=kreska pseudotaktowa	!
1D	e-	.	.	1D	.	1A	e-
=48-	=48-	=48-	=48-	=48-	=48-	=48-	=48-
!	!	!LO:N:vis=0	!	!LO:LB:g=original	!	!	!
1GG	-lei-	0.G	.	1D	-lei-	1B	-ley-
1GG	-ſon	.	.	1D	-ſon	1B	-ſon
!LO:TX:t=P:problem=kreska pseudotaktowa	!	!	!	!LO:TX:t=P:problem=kreska pseudotaktowa	!	!LO:TX:t=P:problem=kreska pseudotaktowa	!
1r	.	.	.	1r	.	1r	.
=49-	=49-	=49-	=49-	=49-	=49-	=49-	=49-
!	!	!LO:N:vis=0	!	!	!	!	!
1.D	Chri-	0.F#X	-ſte	0D	Chri-	0A	Chri-
2E\	.	.	.	.	.	.	.
!LO:TX:t=P:problem=# above	!	!	!	!	!	!LO:TX:t=P:problem=kreska pseudotaktowa	!
2F#X\	.	.	.	1A	-ſte	1d	-ſte
!LO:TX:t=P:problem=kreska pseudotaktowa	!	!	!	!	!	!	!
2D\	.	.	.	.	.	.	.
=50-	=50-	=50-	=50-	=50-	=50-	=50-	=50-
!	!	!LO:N:vis=0	!	!LO:TX:t=P:problem=kreska pseudotaktowa	!	!	!
1G	-ſte	0.G	.	0.B	e-	2d\	e-
.	.	.	.	.	.	2c\	.
1GG	.	.	.	.	.	2B\	.
.	.	.	.	.	.	2A/	.
!LO:TX:t=P:problem=kreska pseudotaktowa	!	!	!	!	!	!	!
1G	e-	.	.	.	.	1G	.
=51-	=51-	=51-	=51-	=51-	=51-	=51-	=51-
*col	*	*	*	*col	*	*col	*
!	!	!LO:N:vis=0	!	!	!	!	!
1D	-ley-	0.Fny	e-	1A	-ley-	1A	-ley-
!LO:TX:t=P:problem=kreska pseudotaktowa	!	!	!	!LO:TX:t=P:problem=kreska pseudotaktowa	!	!	!
0D	-ſon	.	.	0A	-ſon	0A	-ſon
*Xcol	*	*	*	*Xcol	*ij	*Xcol	*ij
=52-	=52-	=52-	=52-	=52-	=52-	=52-	=52-
!	!	!LO:N:vis=0	!	!	!	!	!
1.AA	Chri-	0.E	-ley-	1.c#X	Chri-	0e	Chri-
2BB/	.	.	.	2d\	.	.	.
!LO:SIC:v:s=2C#/	!	!	!	!	!	!LO:TX:t=P:problem=kreska pseudotaktowa	!
2C/	.	.	.	2e\	.	1A	-ſte
!LO:TX:t=P:problem=kreska pseudotaktowa	!	!	!	!LO:TX:t=P:problem=kreska pseudotaktowa	!	!	!
2AA/	.	.	.	2c#X\	.	.	.
=53-	=53-	=53-	=53-	=53-	=53-	=53-	=53-
*	*	*	*	*	*	*col	*
!	!	!LO:N:vis=0	!	!	!	!	!
!	!	!LO:LB:g=original	!	!	!	!	!
1D	-ſte	0.F	.	1d	.	1A	e-
1D	.	.	.	1d	-ſte	0d	-ley-
*	*	*	*	*	*	*Xcol	*
*custos:GG	*	*	*	*	*	*	*
!LO:TX:t=P:problem=kreska pseudotaktowa	!	!	!	!LO:TX:t=P:problem=kreska pseudotaktowa	!	!	!
1D	e-	.	.	1A	e-	.	.
=54-	=54-	=54-	=54-	=54-	=54-	=54-	=54-
!LO:LB:g=original	!	!LO:N:vis=0	!	!	!	!	!
1GG	-lei-	0.D	.	1B-X	-ley-	0d	-ſon
*	*	*	*	*	*	*	*Xij
1GG	-ſon	.	.	1B-	-ſon	.	.
*	*	*	*	*	*	*custos:d	*
!LO:TX:t=P:problem=kreska pseudotaktowa	!	!	!	!LO:TX:t=P:problem=kreska pseudotaktowa	!	!LO:TX:t=P:problem=kreska pseudotaktowa	!
1r	.	.	.	1r	.	1r	.
=55-	=55-	=55-	=55-	=55-	=55-	=55-	=55-
*	*ij	*	*	*	*	*	*
!	!	!LO:N:vis=0	!	!	!	!LO:LB:g=original	!
1.D	Chri-	0.D	.	0.A	Chri-	2d\	Chri-
.	.	.	.	.	.	2e\	.
.	.	.	.	.	.	2f\	.
2E\	-ſte	.	.	.	.	2g\	.
2Fny\	.	.	.	.	.	2a\	.
!LO:TX:t=P:problem=kreska pseudotaktowa	!	!	!	!	!	!LO:TX:t=P:problem=kreska pseudotaktowa	!
2D\	.	.	.	.	.	2f\	.
=56-	=56-	=56-	=56-	=56-	=56-	=56-	=56-
!	!	!LO:N:vis=0	!	!	!	!	!
1G	e-	0.D	.	2B-X\	-ſte	1g	-ſte
.	.	.	.	2A/	e-	.	.
1G	-lei-	.	.	2B-\	.	0d	e-
.	.	.	.	2cny\	.	.	.
!LO:TX:t=P:problem=kreska pseudotaktowa	!	!	!	!LO:TX:t=P:problem=kreska pseudotaktowa	!	!	!
1GG	.	.	.	1d	.	.	.
=57-	=57-	=57-	=57-	=57-	=57-	=57-	=57-
!	!	!LO:N:vis=0	!	!LO:LB:g=original	!	!	!
0.GG	.	0.D	.	0.B-X	-ley-	0.g	-ley-
=58-	=58-	=58-	=58-	=58-	=58-	=58-	=58-
!	!	!	!	!	!	!LO:SIC:v:s=0.f#;<	!
!	!	!LO:N:vis=00	!	!	!	!LO:N:vis=0	!
0.D;<	-ſon	0.D	-ſon	0A	-ſon	0.f;<	-ſon
.	.	.	.	1ryy	.	.	.
=59||	=59||	=59||	=59||	=59||	=59||	=59||	=59||
*M2/1	*Xij	*M2/1	*Xij	*M2/1	*Xij	*M2/1	*
*met(C|)	*	*met(C|)	*	*met(C|)	*	*	*
*	*	*	*	*lig	*	*met(C|)	*
!LO:LB:g=original	!	!LO:LB:g=original	!	!	!	!LO:PB:g=original	!
2.A\	Ky-	2.c\	Ky-	1A	KKy-	1r	.
!LO:TX:t=P:problem=kreska pseudotaktowa	!	!LO:TX:t=P:problem=kreska pseudotaktowa	!	!	!	!	!
4A\	-ri-	4c\	-ri-	.	.	.	.
4A\	-e	4c\	-e	1c	.	2.a\	Ky-
4G\	.	4B\	.	.	.	.	.
4F\	.	4A/	.	.	.	.	.
!LO:TX:t=P:problem=kreska pseudotaktowa	!	!LO:TX:t=P:problem=kreska pseudotaktowa	!	!	!	!LO:TX:t=P:problem=kreska pseudotaktowa	!
4E\	.	4G/	.	.	.	4a\	-ri-
*	*	*	*	*Xlig	*	*	*
=60-	=60-	=60-	=60-	=60-	=60-	=60-	=60-
!	!	!	!	!LO:TX:t=P:problem=kreska pseudotaktowa	!	!	!
2.D\	.	2.F/	[e]-	1d	-ri-	4a\	-e
.	.	.	.	.	.	4g\	.
.	.	.	.	.	.	4f\	.
!	!	!	!	!	!	!LO:TX:t=P:problem=kreska pseudotaktowa	!
4E\	.	4G/	.	.	.	4e\	.
*lig	*	*	*	*	*	*	*
1F	.	2.A/	.	1A	-e	1d	.
!	!	!LO:TX:t=P:problem=kreska pseudotaktowa	!	!	!	!	!
.	.	4B\	.	.	.	.	.
=61-	=61-	=61-	=61-	=61-	=61-	=61-	=61-
!LO:TX:t=P:problem=kreska pseudotaktowa	!	!	!	!	!	!	!
*	*	*	*	*lig	*	*	*
1FF	.	2c\	-ley-	1A	e-	1.c	e-
!	!	!LO:TX:t=P:problem=kreska pseudotaktowa	!	!	!	!	!
.	.	2C/	-ſon	.	.	.	.
*Xlig	*	*	*	*	*	*	*
2.C/	e-	1.E	e-	1G	.	.	.
.	.	.	.	.	.	4G/	.
!	!	!	!	!	!	!LO:TX:t=P:problem=kreska pseudotaktowa	!
4BB/	.	.	.	.	.	4B/	.
*	*	*	*	*Xlig	*	*	*
=62-	=62-	=62-	=62-	=62-	=62-	=62-	=62-
4AA/	.	.	.	1A	-leӱ-	4c#X/	.
4GG/	.	.	.	.	.	2d\	.
!LO:TX:t=P:problem=kreska pseudotaktowa	!	!LO:TX:t=P:problem=kreska pseudotaktowa	!	!	!	!	!
2AA/	-lei-	2A/	-ley-	.	.	.	.
!	!	!	!	!	!	!LO:TX:t=P:problem=kreska pseudotaktowa	!
.	.	.	.	.	.	4c#X/	-ley-
!	!	!	!	!LO:TX:t=P:problem=kreska pseudotaktowa	!	!	!
1D	-ſon	1F	-ſon	1A	-ſon	1d	-ſon
=63-	=63-	=63-	=63-	=63-	=63-	=63-	=63-
*	*	*	*	*	*	*lig	*
2.C/	ky-	2.E/	ky-	2.c\	ky-	1e	ky-
!LO:TX:t=P:problem=kreska pseudotaktowa	!	!LO:TX:t=P:problem=kreska pseudotaktowa	!	!	!	!	!
4C/	-ri-	4E/	-ri-	4c\	-ri-	.	.
!	!	!	!	!	!	!LO:TX:t=P:problem=kreska pseudotaktowa	!
4C/	-e	4E/	-e	2c\	-e	1g	.
*	*	*custos:G	*	*	*	*	*
4D/	.	4F/	.	.	.	.	.
!	!	!	!	!LO:TX:t=P:problem=kreska pseudotaktowa	!	!	!
4E\	.	4G/	.	2.G/	e-	.	.
!LO:TX:t=P:problem=kreska pseudotaktowa	!	!LO:TX:t=P:problem=kreska pseudotaktowa	!	!	!	!	!
4F\	.	4A/	.	.	.	.	.
*	*	*	*	*	*	*Xlig	*
=64-	=64-	=64-	=64-	=64-	=64-	=64-	=64-
2.G\	e-	2.B\	e-	.	.	1d	-ri-
.	.	.	.	4A/	.	.	.
.	.	.	.	4Bny\	.	.	.
4F\	.	4A/	-ley-	8c\L	.	.	.
*	*	*	*	*custos:e	*	*	*
.	.	.	.	8d\J	.	.	.
!	!	!	!	!LO:PB:g=original	!	!LO:TX:t=P:problem=kreska pseudotaktowa	!
2E\	.	1.G	-ſon	1e	.	1cny	-e
*custos:G	*	*	*	*	*	*	*
!LO:TX:t=P:problem=kreska pseudotaktowa	!	!	!	!	!	!	!
2C/	.	.	.	.	.	.	.
=65-	=65-	=65-	=65-	=65-	=65-	=65-	=65-
*	*	*	*ij	*	*	*	*
!LO:LB:g=original	!	!	!	!LO:TX:t=P:problem=kreska pseudotaktowa	!	!	!
2.G\	.	.	.	1d	.	1B	e-
!	!	!LO:TX:t=P:problem=kreska pseudotaktowa	!	!	!	!	!
.	.	2B\	ky-	.	.	.	.
!LO:TX:t=P:problem=kreska pseudotaktowa	!	!	!	!	!	!	!
4F\	.	.	.	.	.	.	.
*	*	*	*	*	*	*custos:A	*
!	!	!	!	!	!	!LO:TX:t=P:problem=kreska pseudotaktowa	!
4E\	.	4E/	-ri-	1A	-ley-	1c	-lei-
4D\	.	8F/L	.	.	.	.	.
.	.	8G/J	.	.	.	.	.
!LO:TX:t=P:problem=kreska pseudotaktowa	!	!	!	!	!	!	!
2AA/	-lei-	4A/	-e	.	.	.	.
!	!	!LO:TX:t=P:problem=kreska pseudotaktowa	!	!	!	!	!
.	.	4E/	.	.	.	.	.
=66-	=66-	=66-	=66-	=66-	=66-	=66-	=66-
!	!	!	!	!	!	!LO:LB:g=original	!
!	!	!	!	!	!	!LO:TX:t=P:problem=kreska pseudotaktowa	!
1D	-ſon	1F	e-	1A	-ſon	1A	-ſon
*	*	*	*	*	*	*lig	*
2.C/	ky-	2G/	.	2.e\	ky-	1c	ky-
!	!	!LO:TX:t=P:problem=kreska pseudotaktowa	!	!	!	!	!
.	.	2E/	-lei-	.	.	.	.
!LO:TX:t=P:problem=kreska pseudotaktowa	!	!	!	!LO:TX:t=P:problem=kreska pseudotaktowa	!	!	!
4C/	-ri-	.	.	4d\	-ri-	.	.
=67-	=67-	=67-	=67-	=67-	=67-	=67-	=67-
4C/	-e	1E	-ſon	2c\	-e	1e	.
4D/	.	.	.	.	.	.	.
4E\	.	.	.	2.G/	e-	.	.
!LO:TX:t=P:problem=kreska pseudotaktowa	!	!	!	!	!	!	!
4F\	.	.	.	.	.	.	.
*	*	*	*Xij	*	*	*Xlig	*
2G\	.	2.B\	ky-	.	.	1d	-ri-
.	.	.	.	4A/	.	.	.
2.G\	.	.	.	4B\	.	.	.
!	!	!LO:TX:t=P:problem=kreska pseudotaktowa	!	!LO:TX:t=P:problem=kreska pseudotaktowa	!	!	!
.	.	4B\	-ri-	4c\	.	.	.
=68-	=68-	=68-	=68-	=68-	=68-	=68-	=68-
*	*	*	*	*	*	*lig	*
.	.	4B\	-e	2d\	.	1g	-e
4F\	.	4A/	.	.	.	.	.
4E\	.	4G/	.	4c\	.	.	.
!LO:TX:t=P:problem=kreska pseudotaktowa	!	!LO:TX:t=P:problem=kreska pseudotaktowa	!	!	!	!	!
4D\	.	4F/	.	4B\	.	.	.
!	!	!	!	!	!	!LO:TX:t=P:problem=kreska pseudotaktowa	!
2C/	e-	2E/	.	2c\	.	1a	.
*	*	*custos:D	*	*	*	*	*
!	!	!LO:TX:t=P:problem=kreska pseudotaktowa	!	!LO:TX:t=P:problem=kreska pseudotaktowa	!	!	!
2D/	-lei-	2D/	.	2A/	.	.	.
*	*	*	*	*	*	*Xlig	*
=69-	=69-	=69-	=69-	=69-	=69-	=69-	=69-
*	*	*	*	*	*	*lig	*
1GG	-ſon	2D/	.	1B	-ley-	1g	e-
.	.	2G/	.	.	.	.	.
2C/	ky-	2E/	.	2G/	-ſon	1a	.
!LO:TX:t=P:problem=kreska pseudotaktowa	!	!LO:TX:t=P:problem=kreska pseudotaktowa	!	!	!	!	!
2D/	-ri-	2A/	.	4D/	ky-	.	.
!	!	!	!	!LO:TX:t=P:problem=kreska pseudotaktowa	!	!	!
.	.	.	.	4d\	-ri-	.	.
*	*	*	*	*	*	*Xlig	*
=70-	=70-	=70-	=70-	=70-	=70-	=70-	=70-
*	*	*	*	*	*	*lig	*
4G\	-e	1B	.	2d\	-e	1g	.
4GG/	.	.	.	.	.	.	.
4BB/	.	.	.	4D/	e-	.	.
!	!	!	!	!LO:TX:t=P:problem=kreska pseudotaktowa	!	!	!
4C/	.	.	.	4E/	.	.	.
!	!	!LO:TX:t=P:problem=kreska pseudotaktowa	!	!	!	!	!
1D	e-	0A	e-	4F/	.	1f	.
*	*	*	*	*custos:A	*	*	*
.	.	.	.	4G/	.	.	.
.	.	.	.	2.A/	.	.	.
*	*	*	*	*	*	*Xlig	*
=71-	=71-	=71-	=71-	=71-	=71-	=71-	=71-
*custos:D	*	*	*	*	*	*	*
!LO:TX:t=P:problem=kreska pseudotaktowa	!	!	!	!	!	!	!
0AA	-lei-	.	.	.	.	0e	-lei-
.	.	.	.	4B\	.	.	.
.	.	.	.	4c\	.	.	.
!	!	!	!	!LO:TX:t=P:problem=kreska pseudotaktowa	!	!	!
.	.	.	.	4d\	.	.	.
.	.	1A	-ley-	2.e\	.	.	.
.	.	.	.	4e\	-ley-	.	.
=72-	=72-	=72-	=72-	=72-	=72-	=72-	=72-
!LO:PB:g=original	!	!	!	!LO:TX:t=P:problem=kreska pseudotaktowa	!	!LO:TX:t=P:problem=kreska pseudotaktowa	!
1D	-ſon	1A	-ſon	1f#X	-ſon	1d	-ſon
*lig	*	*	*ij	*	*	*	*
1C	ky-	2.c\	ky-	2.e\	ky-	1r	.
!	!	!LO:TX:t=P:problem=kreska pseudotaktowa	!	!LO:TX:t=P:problem=kreska pseudotaktowa	!	!	!
.	.	4B\	.	4d\	.	.	.
=73-	=73-	=73-	=73-	=73-	=73-	=73-	=73-
!LO:TX:t=P:problem=kreska pseudotaktowa	!	!	!	!	!	!	!
1F	.	4A/	.	4c\	.	2.f\	ky-
.	.	4G/	.	4B\	.	.	.
!	!	!	!	!LO:TX:t=P:problem=kreska pseudotaktowa	!	!	!
.	.	2A/	.	2c\	-ri-	.	.
!	!	!	!	!	!	!LO:TX:t=P:problem=kreska pseudotaktowa	!
.	.	.	.	.	.	4e\	.
!	!	!LO:TX:t=P:problem=kreska pseudotaktowa	!	!	!	!	!
*Xlig	*	*	*	*	*	*	*
*lig	*	*	*	*	*	*	*
1G	-ri-	1G	-ri-	1B	-e	4d\	-ri-
.	.	.	.	.	.	4c/	-e
!	!	!	!	!	!	!LO:TX:t=P:problem=kreska pseudotaktowa	!
.	.	.	.	.	.	2d\	e-
=74-	=74-	=74-	=74-	=74-	=74-	=74-	=74-
1F	.	2A/	.	1c	e-	4f\	.
.	.	.	.	.	.	4g\	.
!	!	!	!	!	!	!LO:TX:t=P:problem=kreska pseudotaktowa	!
.	.	4G/	.	.	.	2a\	-lei-
!	!	!LO:TX:t=P:problem=kreska pseudotaktowa	!	!	!	!	!
.	.	4F/	.	.	.	.	.
*Xlig	*	*	*	*	*	*	*
*lig	*	*	*	*	*	*	*
!	!	!	!	!LO:TX:t=P:problem=kreska pseudotaktowa	!	!	!
1E	-e	2G/	-e	1G	-lei-	1g	-ſon
.	.	2E/	.	.	.	.	.
=75-	=75-	=75-	=75-	=75-	=75-	=75-	=75-
!	!	!	!	!LO:TX:t=P:problem=kreska pseudotaktowa	!	!	!
1D	.	2A/	e-	1d	-ſon	2f\	.
*	*	*	*	*	*	*custos:c	*
!	!	!	!	!	!	!LO:TX:t=P:problem=kreska pseudotaktowa	!
.	.	4G/	.	.	.	2f\	ky-
*	*	*custos:G	*	*	*	*	*
!	!	!LO:TX:t=P:problem=kreska pseudotaktowa	!	!	!	!	!
.	.	4F/	.	.	.	.	.
*Xlig	*	*	*	*	*	*	*
!LO:TX:t=P:problem=kreska pseudotaktowa	!	!LO:PB:g=original	!	!	!	!	!
1C	e-	4G/	-ley-	1r	.	2.c/	-ri-
.	.	4F/	.	.	.	.	.
.	.	4E/	.	.	.	.	.
!	!	!LO:TX:t=P:problem=kreska pseudotaktowa	!	!	!	!LO:TX:t=P:problem=kreska pseudotaktowa	!
.	.	4D/	.	.	.	4d\	-e
=76-	=76-	=76-	=76-	=76-	=76-	=76-	=76-
*lig	*	*	*	*	*	*	*
1C	-lei-	2C/	.	2.c\	e-	4e\	.
.	.	.	.	.	.	4f\	.
.	.	2G/	.	.	.	1g	.
.	.	.	.	4B\	.	.	.
1D	.	2D/	.	4A/	.	.	.
!	!	!	!	!LO:TX:t=P:problem=kreska pseudotaktowa	!	!	!
.	.	.	.	4G/	.	.	.
.	.	2A/	.	2A/	-ley-	4f#X\	e-
!	!	!	!	!	!	!LO:TX:t=P:problem=kreska pseudotaktowa	!
.	.	.	.	.	.	4e\	-lei-
*Xlig	*	*	*	*	*	*	*
=77-	=77-	=77-	=77-	=77-	=77-	=77-	=77-
1D	-ſon	1A	-ſon	1d	-ſon	1f#X	-ſon
=78-	=78-	=78-	=78-	=78-	=78-	=78-	=78-
*M3/1	*	*M3/1	*Xij	*M3/1	*	*M3/1	*
*met(O3/1)	*	*met(O3/1)	*	*met(O3/1)	*	*met(O3/1)	*
0AA	ky-	0A	ky-	0c	ky-	0e	ky-
*	*	*	*	*custos:A	*	*	*
!LO:TX:t=P:problem=kreska pseudotaktowa	!	!LO:TX:t=P:problem=kreska pseudotaktowa	!	!LO:TX:t=P:problem=kreska pseudotaktowa	!	!LO:TX:t=P:problem=kreska pseudotaktowa	!
1E	-ri-	1G#X	-ri-	1B	-ri-	1e	-ri-
=79-	=79-	=79-	=79-	=79-	=79-	=79-	=79-
!	!	!	!	!LO:LB:g=original	!	!	!
0AA	-e	0A	-e	0A	-e	0e	-e
!LO:TX:t=P:problem=kreska pseudotaktowa	!	!	!	!LO:TX:t=P:problem=kreska pseudotaktowa	!	!	!
1AA	e-	1c	e-	1A	e-	1a	e-
=80-	=80-	=80-	=80-	=80-	=80-	=80-	=80-
0.GG	-lei-	0.d	-lei-	0.B	-ley-	0.g	-ley-
=81-	=81-	=81-	=81-	=81-	=81-	=81-	=81-
!	!	!	!	!	!	!LO:TX:t=P:problem=kreska pseudotaktowa	!
0.D	-ſon	0.A	-ſon	0.d	-ſon	0.fny	-ſon
=82-	=82-	=82-	=82-	=82-	=82-	=82-	=82-
*	*	*	*ij	*	*ij	*	*
0D	ky-	0A	ky-	0A	ky-	0f	ky-
!LO:TX:t=P:problem=kreska pseudotaktowa	!	!LO:TX:t=P:problem=kreska pseudotaktowa	!	!LO:TX:t=P:problem=kreska pseudotaktowa	!	!	!
1AA	-ri-	1c	-ri-	1A	-ri-	1a	-ri-
=83-	=83-	=83-	=83-	=83-	=83-	=83-	=83-
0C	-e	0Gny	-e	0E	-e	0g	-e
*custos:AA	*	*	*	*	*	*	*
!LO:TX:t=P:problem=kreska pseudotaktowa	!	!	!	!	!	!LO:TX:t=P:problem=kreska pseudotaktowa	!
1D	.	1F	e-	1A	.	1d	e-
=84-	=84-	=84-	=84-	=84-	=84-	=84-	=84-
*	*	*	*	*	*	*col	*
!LO:LB:g=original	!	!	!	!	!	!	!
0AA	e-	0E	-ley-	0c	e-	1e	.
*	*	*	*	*	*	*custos:g	*
.	.	.	.	.	.	0c	-ley-
*	*	*	*	*	*	*Xcol	*
*	*	*custos:D	*	*	*	*	*
!LO:TX:t=P:problem=kreska pseudotaktowa	!	!	!	!LO:TX:t=P:problem=kreska pseudotaktowa	!	!	!
1FF	-lei-	1F	.	1c	-ley-	.	.
=85-	=85-	=85-	=85-	=85-	=85-	=85-	=85-
!	!	!LO:LB:g=original	!	!	!	!	!
0.GG	-ſon	0.D	-ſon	0.B	-ſon	0.g	-ſon
=86-	=86-	=86-	=86-	=86-	=86-	=86-	=86-
*	*	*	*Xij	*	*	*	*
0GG	ky-	0G	ky-	0d	ky-	0g	ky-
!	!	!LO:TX:t=P:problem=kreska pseudotaktowa	!	!	!	!LO:TX:t=P:problem=kreska pseudotaktowa	!
1GG	-ri-	1G	-ri-	1d	-ri-	1g	-ri-
=87-	=87-	=87-	=87-	=87-	=87-	=87-	=87-
0GG	-e	0D	-e	0B	-e	0.g	-e
!LO:TX:t=P:problem=kreska pseudotaktowa	!	!	!	!LO:TX:t=P:problem=kreska pseudotaktowa	!	!	!
1C	e-	1C	.	1e	e-	.	.
=88-	=88-	=88-	=88-	=88-	=88-	=88-	=88-
*	*	*	*	*	*	*lig	*
0BB-X	.	0F	e-	0d	-ley-	1d	e-
.	.	.	.	.	.	1f	.
*	*	*	*	*	*	*Xlig	*
!	!	!	!	!	!	!LO:TX:t=P:problem=kreska pseudotaktowa	!
1GG	-lei-	1G	-ley-	1G	.	1e	-ley-
=89-	=89-	=89-	=89-	=89-	=89-	=89-	=89-
!LO:TX:t=P:problem=kreska pseudotaktowa	!	!	!	!	!	!	!
0.FF	-ſon	0.A	-ſon	0.c	-ſon	0.f	-ſon
=90-	=90-	=90-	=90-	=90-	=90-	=90-	=90-
*	*	*	*ij	*	*	*lig	*
0AA	ky-	0A	ky-	0c#X	ky-	1a	ky-
.	.	.	.	.	.	1e	.
*	*	*	*	*	*	*Xlig	*
*	*	*	*	*custos:d	*	*	*
!LO:TX:t=P:problem=kreska pseudotaktowa	!	!LO:TX:t=P:problem=kreska pseudotaktowa	!	!LO:TX:t=P:problem=kreska pseudotaktowa	!	!LO:TX:t=P:problem=kreska pseudotaktowa	!
1D	-ri-	1F	-ri-	1d	-ri-	1f	-ri-
=91-	=91-	=91-	=91-	=91-	=91-	=91-	=91-
!	!	!	!	!LO:LB:g=original	!	!	!
0GG	-e	0G	-e	0d	-e	1d	-e
.	.	.	.	.	.	1.d	e-
!LO:TX:t=P:problem=kreska pseudotaktowa	!	!	!	!LO:TX:t=P:problem=kreska pseudotaktowa	!	!	!
1D	e-	1F	.	1d	.	.	.
!	!	!	!	!	!	!LO:TX:t=P:problem=kreska pseudotaktowa	!
.	.	.	.	.	.	2a\	.
=92-	=92-	=92-	=92-	=92-	=92-	=92-	=92-
0AA	-lei-	0E	e-	0e	e-	0a	-ley-
!LO:TX:t=P:problem=kreska pseudotaktowa	!	!	!	!LO:TX:t=P:problem=kreska pseudotaktowa	!	!	!
1D	-ſon	1F	.	1d	.	1f	-ſon
=93-	=93-	=93-	=93-	=93-	=93-	=93-	=93-
*	*	*	*	*	*	*	*ij
0D	e-	0D	.	0d	.	0f	e-
!	!	!	!	!LO:TX:t=P:problem=kreska pseudotaktowa	!	!	!
1AA	.	1E	.	1c#X	.	1e	-le-
=94-	=94-	=94-	=94-	=94-	=94-	=94-	=94-
*	*	*	*	*col	*	*	*
0.AA	-ley-	1C#X	-ley-	1e	-ley-	0.e	-i-
.	.	2AA/	.	0A	.	.	.
*	*	*	*	*Xcol	*	*	*
.	.	2BB/	.	.	.	.	.
!	!	!LO:TX:t=P:problem=# above	!	!	!	!	!
.	.	1C#X	.	.	.	.	.
=95-	=95-	=95-	=95-	=95-	=95-	=95-	=95-
!LO:N:vis=00	!	!LO:N:vis=00	!	!LO:N:vis=0	!	!LO:N:vis=0	!
0.D	-ſon	0.D	-ſon	0.A	-ſon	0.f#X	-ſon
.	.	.	.	.	.	.	.
*	*	*	*Xij	*	*Xij	*	*Xij
==	==	==	==	==	==	==	==
*-	*-	*-	*-	*-	*-	*-	*-
!!!system-decoration: [(s1s2s3s4)]
!!!ENC: Arek Malec
!!!END: 2022-01-25
!!!ENC: Krzysztof Stępień
!!!END: 2022-01-26
!!!RDF**kern: > = above
!!!RDF**kern: < = below
